img/pinterest.svg

<svg xmlns="http://www.w3.org/2000/svg" xmlns:xlink="http://www.w3.org/1999/xlink" preserveAspectRatio="xMidYMid" width="100" height="100" viewBox="0 0 100 100">
  <defs>
    <style>
      .cls-1 {
        fill: #0fc;
        fill-rule: evenodd;
      }
    </style>
  </defs>
  <path d="M91.009,50.010 C91.009,27.324 72.687,9.004 49.998,9.004 C27.308,9.004 8.986,27.324 8.986,50.010 C8.986,66.810 19.049,81.238 33.574,87.598 C33.384,84.750 33.479,81.238 34.239,78.201 C34.998,74.784 39.555,55.800 39.555,55.800 C39.555,55.800 38.226,53.237 38.226,49.345 C38.226,43.270 41.738,38.714 46.105,38.714 C49.808,38.714 51.611,41.467 51.611,44.884 C51.611,48.586 49.238,54.186 48.004,59.407 C46.960,63.773 50.188,67.285 54.459,67.285 C62.244,67.285 67.465,57.318 67.465,45.548 C67.465,36.531 61.484,29.791 50.472,29.791 C38.036,29.791 30.251,39.094 30.251,49.440 C30.251,53.047 31.295,55.515 32.909,57.508 C33.669,58.362 33.859,58.742 33.574,59.786 C33.384,60.546 32.909,62.349 32.719,63.014 C32.435,64.058 31.581,64.437 30.631,64.058 C24.935,61.780 22.277,55.515 22.277,48.396 C22.277,36.721 32.055,22.767 51.611,22.767 C67.181,22.767 77.529,34.158 77.529,46.308 C77.529,62.349 68.605,74.404 55.409,74.404 C50.947,74.404 46.770,72.031 45.346,69.278 C45.346,69.278 42.973,78.770 42.498,80.574 C41.643,83.706 39.934,86.839 38.320,89.307 C42.023,90.446 45.915,91.015 49.998,91.015 C72.687,91.015 91.009,72.696 91.009,50.010 Z" class="cls-1"/>
</svg>

<svg id="ab30c083-98c9-4769-b728-a9f1ebce81ba" data-name="Layer 1" xmlns="http://www.w3.org/2000/svg" viewBox="0 0 82.02 82.01"><defs><style>.\36 b33e4cf-755c-481a-889e-48a1a7f08c12{fill:currentColor;}</style></defs><title>pinterest</title><path class="6b33e4cf-755c-481a-889e-48a1a7f08c12" d="M91,50A41,41,0,1,0,33.57,87.6a31.82,31.82,0,0,1,.66-9.4c0.76-3.42,5.32-22.4,5.32-22.4a15.19,15.19,0,0,1-1.33-6.45c0-6.08,3.51-10.63,7.88-10.63,3.7,0,5.51,2.75,5.51,6.17,0,3.7-2.37,9.3-3.61,14.52-1,4.37,2.18,7.88,6.45,7.88,7.78,0,13-10,13-21.74,0-9-6-15.76-17-15.76-12.44,0-20.22,9.3-20.22,19.65a12.09,12.09,0,0,0,2.66,8.07,2,2,0,0,1,.67,2.28c-0.19.76-.67,2.56-0.85,3.23a1.45,1.45,0,0,1-2.09,1c-5.7-2.28-8.35-8.54-8.35-15.66,0-11.67,9.78-25.63,29.33-25.63,15.57,0,25.92,11.39,25.92,23.54,0,16-8.92,28.1-22.12,28.1-4.46,0-8.64-2.37-10.06-5.13,0,0-2.37,9.49-2.85,11.3a32.33,32.33,0,0,1-4.18,8.73A39.5,39.5,0,0,0,50,91,41,41,0,0,0,91,50Z" transform="translate(-8.99 -9)"/></svg>
